packages/kaspersky-hexa-ui-icons/src/iconsSVGs/16/Document.svg

<svg width="16" height="16" viewBox="0 0 16 16" fill="none" xmlns="http://www.w3.org/2000/svg">
<path fill-rule="evenodd" clip-rule="evenodd" d="M3.24463 3.09395C3.24463 1.96176 4.16245 1.04395 5.29463 1.04395H8.96385C9.28282 1.04395 9.58746 1.17643 9.80498 1.40973L13.4475 5.31667C13.646 5.52956 13.7564 5.80981 13.7564 6.10088V6.53735H10.5647C9.4325 6.53735 8.51468 5.61953 8.51468 4.48735L8.51469 2.34395H5.29463C4.88042 2.34395 4.54463 2.67973 4.54463 3.09395V5.61057H3.24463V3.09395ZM9.81468 3.32651L11.5962 5.23735H10.5647C10.1505 5.23735 9.81468 4.90157 9.81468 4.48735L9.81468 3.32651Z" fill="black"/>
<path d="M6.58219 8.21057C6.77549 8.21057 6.93219 8.36727 6.93219 8.56057V10.207C6.93219 10.4003 6.77549 10.557 6.58219 10.557H2.53037C2.17139 10.557 1.88037 10.8481 1.88037 11.207C1.88037 11.566 2.17139 11.857 2.53037 11.857H6.58219C7.49346 11.857 8.23219 11.1183 8.23219 10.207V8.56057C8.23219 7.6493 7.49346 6.91057 6.58219 6.91057H2.53037C2.17139 6.91057 1.88037 7.20158 1.88037 7.56057C1.88037 7.91955 2.17139 8.21057 2.53037 8.21057H6.58219Z" fill="black"/>
<path d="M5.29463 13.656C4.96847 13.656 4.69094 13.4478 4.58768 13.157H3.25985C3.38364 14.1708 4.24744 14.956 5.29463 14.956H11.5064C12.749 14.956 13.7564 13.9486 13.7564 12.706V12.0344C13.3581 12.2609 12.8857 12.3084 12.4564 12.1768V12.706C12.4564 13.2307 12.0311 13.656 11.5064 13.656H5.29463Z" fill="black"/>
<path d="M13.4009 11.0589C13.3057 11.1541 13.1883 11.2136 13.0654 11.2374C12.9747 11.255 12.881 11.2531 12.791 11.2318C12.6776 11.205 12.57 11.1474 12.4816 11.0589C12.2278 10.8051 12.2278 10.3935 12.4816 10.1397L12.5875 10.0338H9.9025C9.54352 10.0338 9.2525 9.74279 9.2525 9.38381C9.2525 9.02482 9.54352 8.73381 9.9025 8.73381H12.5875L12.4816 8.62794C12.2278 8.3741 12.2278 7.96254 12.4816 7.7087C12.5768 7.6135 12.6942 7.55401 12.8171 7.53022C12.9078 7.51267 13.0014 7.51453 13.0914 7.53581C13.2048 7.56262 13.3124 7.62025 13.4009 7.7087L14.6163 8.92419C14.8702 9.17803 14.8702 9.58959 14.6163 9.84343L13.4009 11.0589Z" fill="black"/>
</svg>

<svg xmlns="http://www.w3.org/2000/svg" width="16" height="16" fill="none" viewBox="0 0 16 16"><path fill="#000" fill-rule="evenodd" d="M3.2446 3.0938c0-1.1322.9178-2.05 2.05-2.05H8.964a1.15 1.15 0 0 1 .841.3658l3.6426 3.907a1.15 1.15 0 0 1 .3089.7842v.4364h-3.1917c-1.1322 0-2.05-.9178-2.05-2.05V2.3438h-3.22a.75.75 0 0 0-.75.75v2.5166h-1.3zm6.57.2326 1.7816 1.9108h-1.0315a.75.75 0 0 1-.75-.75zm-3.2324 4.884a.35.35 0 0 1 .35.35v1.6465a.35.35 0 0 1-.35.35H2.5304a.65.65 0 1 0 0 1.3h4.0518c.9112 0 1.65-.7387 1.65-1.65V8.5604c0-.9112-.7388-1.65-1.65-1.65H2.5304a.65.65 0 0 0 0 1.3zm6.8187 2.8484a.647.647 0 0 1-.3355.1785.65.65 0 0 1-.2744-.0056.65.65 0 0 1-.3094-1.0921l.1059-.1059h-2.685a.65.65 0 0 1 0-1.3h2.685l-.1059-.1059a.65.65 0 0 1 .9193-.9192l1.2154 1.2155a.65.65 0 0 1 0 .9192zm-8.1063 2.5971a.75.75 0 0 1-.707-.499H3.26c.1237 1.0138.9875 1.799 2.0347 1.799h6.2118c1.2426 0 2.25-1.0074 2.25-2.25v-.6717a1.654 1.654 0 0 1-1.3.1425v.5292a.95.95 0 0 1-.95.95z"/></svg>
